X:20032
T:Tink A Tink
R:Reel
C:Trad. Mittell 1799
O:England; Kent
Z:Paul Hardy's Session Tunebook 2022 (see www.paulhardy.net). Creative Commons cc by-nc-sa licenced.
M:4/4
L:1/8
Q:1/4=150
K:G
"G" G2 dB G2 dB|"C" cdcB "D" AG F2|"G" G2 dB G2 dB|"D7" cAGF "G" G2 z2:|
|:"G" d2 gf "C" edcB|"D" ABcd "G" cBAG|d2 gf "C" edcB|"D" ABcd "G" G2 z2:|
|:"G" GBdB GBdB|GBdB "D7" cAGF|"G" GBdB "C" Gcec|"D7" BAGF "G"G2 z2:|

